public/visactor.svg

<svg fill="none" height="28" viewBox="0 0 26 26" width="28"><path fill-rule="evenodd" clip-rule="evenodd" d="M13 0C20.1797 0 26 5.8203 26 13C26 14.1592 25.8483 15.283 25.5636 16.3525L18.2377 4.25581H18.2291C17.5709 3.254 16.4371 2.59256 15.1489 2.59256C13.8606 2.59256 12.7268 3.254 12.0686 4.25581H12.0599L11.9686 4.41693C11.951 4.44707 11.9337 4.47747 11.9169 4.50815L3.88731 18.6779C3.56947 19.2224 3.38736 19.8558 3.38736 20.5318C3.38736 21.1089 3.52009 21.655 3.75667 22.1412C1.43409 19.7928 0 16.5639 0 13C0 5.8203 5.8203 0 13 0ZM6.27755 24.1292C6.53287 24.1852 6.79812 24.2147 7.07026 24.2147C9.10427 24.2147 10.7532 22.5658 10.7532 20.5318C10.7532 19.8794 10.5835 19.2667 10.286 18.7353L10.2879 18.7345L8.49328 15.6288C7.52634 13.954 8.10016 11.8124 9.77496 10.8455C11.4498 9.87854 13.5913 10.4524 14.5582 12.1272L20.8887 22.8559L20.8912 22.8548C20.9571 22.962 21.0284 23.0655 21.1045 23.1651C18.8821 24.9394 16.0649 26 13 26C10.5397 26 8.23908 25.3166 6.27755 24.1292Z" fill="#0040FF"></path></svg>

<svg width="28" height="28" fill="none" viewBox="0 0 26 26"><path fill="#0040ff" fill-rule="evenodd" d="M13 0c7.18 0 13 5.82 13 13 0 1.16-.152 2.283-.436 3.352L18.238 4.256h-.009a3.68 3.68 0 0 0-3.08-1.663 3.68 3.68 0 0 0-3.08 1.663h-.01l-.09.16-.052.092-8.03 14.17a3.67 3.67 0 0 0-.5 1.854c0 .577.133 1.123.37 1.61A12.96 12.96 0 0 1 0 13C0 5.82 5.82 0 13 0M6.278 24.13q.383.084.792.085a3.683 3.683 0 0 0 3.216-5.48h.002l-1.795-3.106a3.502 3.502 0 1 1 6.065-3.502l6.33 10.729.003-.001q.099.16.214.31A12.95 12.95 0 0 1 13 26c-2.46 0-4.76-.683-6.722-1.87" clip-rule="evenodd"/></svg>
